X:1
T:Title
L:1/8
M:4/4
K:C
V:1 treble nm="Grand Piano"
V:1
 z4 z[Q:1/4=100] GAB | c2 G2 A2 E2 | G4- GAAG | G2 F2 G2 F2 |[M:5/8] E-E- E3 |[M:3/8] EDE | %6
[M:4/4] F2 F2 G2 F2 | E4- EEDE | F2 F2 G2 F2 |[M:5/8] E-E- E3 |[M:3/8] GGG |[M:4/4] G4- GAAA | %12
 A4- ABBB | B2 G2 A2 B2 |[M:5/8] c-c- c3 |] %15

